X:256
T:Dans Kost ar c'hoad (Mael-Karaez)
C:trad
N:original url: www.wolfram.claranet.de
Z:Wolfram Dietz
M:4/4
L:1/8
K:Ador
c2 B>A B>c A2|AB/c/ d>c Ac B>B|c2 B>A B>c A2|AB/c/ d>c Ac B2|
|:A2 e>e B>c d2|c/B/c A2 c2 B>A|GG E2 F>G A>G|Ac Bc/B/ A2 A2:|
